X: 10859
T: Dripsey, The
R: polka
M: 2/4
K: Amajor
cf ec|Bc/B/ AF|EF AB|cB BA/B/|
cf ec|Bc/B/ AF|EF AB|cA AB:|
|:ce ec/e/|ae cA|ce fe|cB B2|
ce ec/e/|ae cA|f/g/f/e/ f/g/f/e/|cA A2:|

